public/assets/isolate4.svg

<svg width="143" height="94" viewBox="0 0 143 94" fill="none" xmlns="http://www.w3.org/2000/svg">
<path d="M7.40503 39.8483V81.7412H89.8715H135.487V38.6577" stroke="#062023" stroke-width="1.2922" stroke-miterlimit="10" stroke-linecap="round" stroke-linejoin="round"/>
<path d="M89.871 93.8685L7.40454 90.977V81.7412H89.871V93.8685Z" fill="url(#paint0_linear_57_402)"/>
<path d="M135.487 91.1471L89.8708 93.8685V81.7412H135.487V91.1471Z" fill="url(#paint1_linear_57_402)"/>
<path d="M89.8708 93.8685V81.7412" stroke="#FEF7EC" stroke-width="1.2922" stroke-miterlimit="10" stroke-linejoin="round"/>
<path d="M89.8713 27.5V81.7413" stroke="#062023" stroke-width="1.2922" stroke-miterlimit="10" stroke-linecap="round" stroke-linejoin="round"/>
<path d="M90.5134 25.833L1.27466 39.2359V40.7497L91.0201 27.2447L120.693 3.26218L141.094 38.5726L141.787 37.0928L120.963 1L90.5134 25.833Z" stroke="#062023" stroke-width="1.2922" stroke-miterlimit="10" stroke-linecap="round" stroke-linejoin="round"/>
<path d="M90.5134 25.833L1.27466 39.2359L35.0516 19.4376L120.963 1L90.5134 25.833Z" stroke="#062023" stroke-width="1.2922" stroke-miterlimit="10" stroke-linecap="round" stroke-linejoin="round"/>
<path d="M135.522 38.9128L141.095 38.5726L120.694 3.26221L117.299 6.05166L135.522 38.9128Z" stroke="#062023" stroke-width="1.2922" stroke-miterlimit="10" stroke-linecap="round" stroke-linejoin="round"/>
<defs>
<linearGradient id="paint0_linear_57_402" x1="-6.63856" y1="87.8069" x2="105.542" y2="87.8069" gradientUnits="userSpaceOnUse">
<stop stop-color="#18808A"/>
<stop offset="1" stop-color="#28C985"/>
</linearGradient>
<linearGradient id="paint1_linear_57_402" x1="84.7991" y1="87.8061" x2="151.555" y2="87.8061" gradientUnits="userSpaceOnUse">
<stop stop-color="#28C985"/>
<stop offset="1" stop-color="#18808A"/>
</linearGradient>
</defs>
</svg>

<svg width="143" height="94" fill="none" xmlns="http://www.w3.org/2000/svg"><path d="M7.405 39.848v41.893h128.082V38.658" stroke="#062023" stroke-width="1.292" stroke-miterlimit="10" stroke-linecap="round" stroke-linejoin="round"/><path d="M89.871 93.868 7.405 90.977v-9.236H89.87v12.127z" fill="url(#a)"/><path d="m135.487 91.147-45.616 2.721V81.742h45.616v9.406z" fill="url(#b)"/><path d="M89.87 93.868V81.742" stroke="#FEF7EC" stroke-width="1.292" stroke-miterlimit="10" stroke-linejoin="round"/><path d="M89.871 27.5v54.241M90.513 25.833 1.275 39.236v1.514L91.02 27.245l29.673-23.983 20.401 35.31.693-1.48L120.963 1l-30.45 24.833z" stroke="#062023" stroke-width="1.292" stroke-miterlimit="10" stroke-linecap="round" stroke-linejoin="round"/><path d="M90.513 25.833 1.275 39.236l33.777-19.798L120.963 1l-30.45 24.833zM135.522 38.913l5.573-.34-20.401-35.31-3.395 2.789 18.223 32.86z" stroke="#062023" stroke-width="1.292" stroke-miterlimit="10" stroke-linecap="round" stroke-linejoin="round"/><defs><linearGradient id="a" x1="-6.639" y1="87.807" x2="105.542" y2="87.807" gradientUnits="userSpaceOnUse"><stop stop-color="#18808A"/><stop offset="1" stop-color="#28C985"/></linearGradient><linearGradient id="b" x1="84.799" y1="87.806" x2="151.555" y2="87.806" gradientUnits="userSpaceOnUse"><stop stop-color="#28C985"/><stop offset="1" stop-color="#18808A"/></linearGradient></defs></svg>
